mobile/apps/auth/assets/custom-icons/icons/kagi.svg

<svg xmlns="http://www.w3.org/2000/svg" fill="none" viewBox="0 0 512 512"><path fill="#FFB319" d="M410.121 0H101.879C45.612 0 0 45.612 0 101.879v308.242C0 466.388 45.612 512 101.879 512h308.242C466.388 512 512 466.388 512 410.121V101.879C512 45.612 466.388 0 410.121 0Z"/><path fill="#191919" d="M297.731 375.79h-86.412c-23.751 0-27.366-25.472-22.939-35.697 2.111-4.852 6.891-11.875 11.415-17.613a115.97 115.97 0 0 0 56.173 14.447 116.86 116.86 0 0 0 116.726-116.738 116.45 116.45 0 0 0-38.671-86.716l2.681-2.717a29.687 29.687 0 0 1 24.321-8.709l14.046 1.492V66.322H350.52a66.713 66.713 0 0 0-61.862 41.824 116.467 116.467 0 0 0-32.75-4.694 116.877 116.877 0 0 0-82.508 34.23 116.875 116.875 0 0 0-34.23 82.507 116.176 116.176 0 0 0 22.707 69.14l-6.914 5.325a44.682 44.682 0 0 0-3.42 2.924c-23.653 22.051-34.498 50.945-28.3 83.076 3.397 17.601 18.341 35.881 33.552 45.573a68.471 68.471 0 0 0 36.122 10.504l96.881-3.93a31.886 31.886 0 0 1 26.989 14.786l12.663 22.853 60.055-20.075-10.273-22.367a89.673 89.673 0 0 0-81.501-52.208Zm-41.763-211.435a55.894 55.894 0 0 1 55.797 55.798 55.895 55.895 0 0 1-55.797 55.797 55.895 55.895 0 0 1-55.798-55.797 55.894 55.894 0 0 1 55.798-55.798Z"/></svg>

<svg width="512" height="512" viewBox="0 0 512 512" fill="none" xmlns="http://www.w3.org/2000/svg">
<path d="M410.121 0H101.879C45.6125 0 0 45.6125 0 101.879V410.121C0 466.388 45.6125 512 101.879 512H410.121C466.388 512 512 466.388 512 410.121V101.879C512 45.6125 466.388 0 410.121 0Z" fill="#FFB319"/>
<path d="M297.731 375.79H211.319C187.568 375.79 183.953 350.318 188.38 340.093C190.491 335.241 195.271 328.218 199.795 322.48C216.994 331.976 236.322 336.947 255.968 336.927C286.917 336.891 316.588 324.58 338.47 302.695C360.354 280.81 372.661 251.138 372.694 220.189C372.701 203.83 369.261 187.652 362.598 172.711C355.935 157.769 346.199 144.4 334.023 133.473L336.704 130.756C339.84 127.566 343.656 125.126 347.868 123.618C352.079 122.11 356.576 121.573 361.025 122.047L375.071 123.539V66.3224H350.52C337.213 66.3293 324.213 70.3151 313.189 77.7681C302.166 85.2211 293.623 95.7999 288.658 108.146C278.02 105.031 266.992 103.45 255.908 103.452C224.958 103.487 195.286 115.798 173.4 137.682C151.516 159.568 139.205 189.239 139.17 220.189C139.139 245.073 147.099 269.309 161.877 289.329L154.963 294.654C153.931 295.443 152.755 296.437 151.543 297.578C127.89 319.629 117.045 348.523 123.243 380.654C126.64 398.255 141.584 416.535 156.795 426.227C167.619 433.032 180.132 436.671 192.917 436.731L289.798 432.801C295.179 432.788 300.475 434.138 305.194 436.723C309.913 439.308 313.901 443.046 316.787 447.587L329.45 470.44L389.505 450.365L379.232 427.998C372.064 412.411 360.575 399.208 346.13 389.955C331.684 380.701 314.887 375.786 297.731 375.79ZM255.968 164.355C270.758 164.381 284.936 170.268 295.394 180.727C305.853 191.185 311.739 205.363 311.765 220.153C311.739 234.943 305.853 249.12 295.394 259.579C284.936 270.038 270.758 275.924 255.968 275.95C241.178 275.924 227.001 270.038 216.542 259.579C206.083 249.12 200.196 234.943 200.17 220.153C200.196 205.363 206.083 191.185 216.542 180.727C227.001 170.268 241.178 164.381 255.968 164.355Z" fill="#191919"/>
</svg>
